X:1
T:6 Lieder, Op. 6
T:Die Sprache der Sterne
T:To Fräulein Angela Oppenhoff 
T:6 Lieder, Op. 6
T:Johanna Kinkel
T:6. Die Sprache der Sterne
T:Heinrich Heine
T:Creative Commons copyright waiver (CC0 1.0 Universal)
C:Johanna Kinkel
Z:Heinrich Heine
Z:Creative Commons copyright waiver (CC0 1.0 Universal)
%%score { 1 | 2 } { 3 | 4 }
L:1/8
M:3/4
K:A
V:1 treble nm="Voice\nSingstimme"
V:2 treble 
V:3 treble nm="Piano"
V:4 bass 
V:1
 E2 |"^Full lyrics available at\nhttps://www.lieder.net/lieder/get_text.html?TextId=7575\n" E4 A2 | %2
w: 1. Es|ste- hen|
w: 2. Sie|spre- chen|
 A4 B2 | (A4 G2) | F4 E2 | (E3 A) B2 | (c2 B2) c2 | z6 | z6 | z6 | z6 | z6 | z6 | z6 | z6 | z6 :| %16
w: un- be-|weg- *|lich die|1. Ster- ne in|ih- * rer||||||||||
w: ei- ne|Spra- *|che, die|2. ist * so|reich, * so||||||||||
V:2
 z2 | A2 E2 A2 | A2 A2 B2 | (A4 G2) | F4 E2 | A4 B2 | c2 B2 c2 | z6 | z6 | z6 | z6 | z6 | z6 | z6 | %14
w: |Ich a- ber|hab' sie ge-|ler- *|net, und|3. ich ber-|get- se sie||||||||
 z6 | z6 :| %16
w: ||
V:3
 z2 |!p! CE [Cc]E[Cc]E | z6 | z6 | z6 | z6 | z6 | z6 | z6 | z6 | z6 | z6 | z6 | z6 | z6 | z6 :| %16
V:4
 z2 | A,,E, A,E,A,E, | z6 | z6 | z6 | z6 | z6 | z6 | z6 | z6 | z6 | z6 | z6 | z6 | z6 | %15
"_Fine" z6 :| %16

